!!!OTL: Moscow
!!!COL: Hymnal 1982
**kern	**text	**text	**text	**text
*clefG2	*	*	*	*
*k[b-]	*	*	*	*
*M3/4	*	*	*	*
*F:	*	*	*	*
=1	=1	=1	=1	=1
4cc	Come,	Come,	Come,	To
4a	thou	thou	ho-	thee,
4f	al-	in-	ly	great
=2	=2	=2	=2	=2
2g	might-	car-	Com-	One
4e	y	nate	fort-	in
=3	=3	=3	=3	=3
2.f	King,	Word,	er,	Three,
=4	=4	=4	=4	=4
4f	help	by	thy	high-
4g	us	heav-	sa-	est
4a	thy	en	cred	prais-
=5	=5	=5	=5	=5
2b-	Name	and	wit-	es
4a	to	earth	ness	be,
=6	=6	=6	=6	=6
2.g	sing,	a-	bear	hence
=7	=7	=7	=7	=7
4cc	help	dored;	in	ev-
4a	us	help	this	er-
4f	to	us	glad	more;
=8	=8	=8	=8	=8
2.c	praise.	to	hour:	thy
=9	=9	=9	=9	=9
4g	Fa-	praise.	thou,	so-
4a	ther	Fa-	who	ver-
4b-	whose	ther	al-	eign
=10	=10	=10	=10	=10
4.a	love	whose	might-	maj-
8g	un-	love	y	es-
4f	known	un-	art,	ty
=11	=11	=11	=11	=11
4g	all	known	now	may
4a	things	all	rule	we
4b-	cre-	things	in	in
=12	=12	=12	=12	=12
4a.	at-	cre-	ev-	glo-
8g	ed	at-	ery	ry
4f	own,	ed	heart,	see,
=13	=13	=13	=13	=13
4f	build	own,	and	and
4f	in	build	ne’er	to
4f	our	in	from	e-
=14	=14	=14	=14	=14
4.cc	hearts	our	us	ter-
8b-	thy	hearts	de-	ni-
4a	throne,	thy	part,	ty
=15	=15	=15	=15	=15
4g	An-	throne,	Spi-	love
4f	cient	An-	rit	and
4e	of	cient	of	a-
=16	=16	=16	=16	=16
2.f	Days.	Days.	pow’r.	dore.
==	==	==	==	==
*-	*-	*-	*-	*-
